images/speaker.svg

<svg width="58" height="46" viewBox="0 0 46 40" fill="none" xmlns="http://www.w3.org/2000/svg">
<path d="M27.2791 0L11.7006 11.0526H0V28.9474H11.7006L27.2791 40V0ZM38.4281 5.24671C38.1964 5.26028 37.9756 5.34758 37.7987 5.49545C37.6219 5.64332 37.4988 5.84374 37.4478 6.0665C37.3969 6.28925 37.421 6.52227 37.5164 6.7304C37.6118 6.93854 37.7733 7.11051 37.9767 7.2204C41.2399 9.04844 43.8605 14.0237 43.8605 20C43.8605 25.9763 41.24 30.9351 37.9767 32.7632C37.7321 32.9034 37.5539 33.1334 37.4811 33.4026C37.4083 33.6718 37.4468 33.9585 37.5882 34.1999C37.7297 34.4412 37.9625 34.6176 38.2358 34.6905C38.5091 34.7634 38.8006 34.7269 39.0465 34.5888C43.2789 32.2178 46 26.5645 46 20C46 13.4354 43.2789 7.76573 39.0465 5.39474C38.8604 5.2848 38.6447 5.23317 38.4281 5.24671ZM32.8452 9.45724C32.6122 9.4676 32.3891 9.55258 32.2097 9.69924C32.0304 9.84591 31.9046 10.0462 31.8516 10.2697C31.7986 10.4932 31.8213 10.7275 31.9162 10.9372C32.0111 11.1468 32.1729 11.3202 32.3772 11.4309C34.3866 12.5999 36.1381 15.9422 36.1381 20C36.1381 24.0579 34.3866 27.3836 32.3772 28.5526C32.2547 28.6225 32.1474 28.7155 32.0615 28.8262C31.9756 28.937 31.9128 29.0634 31.8766 29.1981C31.8405 29.3328 31.8318 29.4732 31.851 29.6113C31.8702 29.7493 31.9169 29.8823 31.9884 30.0025C32.06 30.1227 32.155 30.2279 32.2679 30.3119C32.3809 30.3959 32.5096 30.4571 32.6467 30.492C32.7838 30.5269 32.9265 30.5349 33.0667 30.5153C33.2069 30.4958 33.3418 30.4493 33.4637 30.3783C36.4513 28.6402 38.2776 24.6243 38.2776 20C38.2776 15.3757 36.4513 11.3433 33.4637 9.60526C33.2775 9.49533 33.0618 9.4437 32.8452 9.45724Z" fill="#4F4F4F"/>
</svg>

<svg width="58" height="46" viewBox="0 0 46 40" fill="none" xmlns="http://www.w3.org/2000/svg"><path d="M27.28 0L11.7 11.053H0v17.894h11.7L27.28 40V0zm11.148 5.247a1.08 1.08 0 00-.63.248 1.038 1.038 0 00-.282 1.235c.096.209.257.38.46.49 3.264 1.828 5.885 6.804 5.885 12.78 0 5.976-2.621 10.935-5.884 12.763-.245.14-.423.37-.496.64a1.04 1.04 0 00.107.797 1.086 1.086 0 001.458.389C43.28 32.218 46 26.565 46 20c0-6.565-2.721-12.234-6.953-14.605a1.084 1.084 0 00-.619-.148zm-5.583 4.21a1.08 1.08 0 00-.635.242 1.037 1.037 0 00-.293 1.238c.094.21.256.383.46.494 2.01 1.169 3.761 4.511 3.761 8.569 0 4.058-1.751 7.384-3.76 8.553a1.072 1.072 0 00-.501.645 1.042 1.042 0 00.111.805 1.066 1.066 0 00.659.489 1.09 1.09 0 00.817-.114C36.45 28.64 38.278 24.624 38.278 20c0-4.624-1.827-8.657-4.814-10.395a1.084 1.084 0 00-.619-.148z" fill="#4F4F4F"/></svg>
